X:1
T:Tu te trompes, Philis
T:Constantijn Huygens
T:Tu te trompes, Philis
C:Constantijn Huygens
%%score 1 2 { ( 3 5 ) | 4 }
L:1/8
Q:1/4=80
M:3/4
K:Eb
V:1 treble-8 nm="Tenor" snm="T"
V:2 treble transpose=-12 nm="Viola da Gamba" snm="V.Gam."
V:3 treble nm="Harpsichord" snm="Hpschd."
V:5 treble 
V:4 bass 
V:1
 z2 z2 ee | e3 B c2 | B2 z B AA | G4 AB | c2 c d e(f | d3) e f2 | cf f2- f/g/f/(e/ | %7
w: Tu te|trom- pes, Phi-|lis, lors- que ta|main, que ta|main d'al- bâ- * tre|_ M'at- trap-|pe, m'at- trap- * * * pe|
 d2) d/e/f c>B | B6 | z2 z2 ee | e3 B c2 | B2 z B AA | G4 AB | c2 c d e(f | d3) e f2 | %15
w: _ dans _ _ _ ton|sein.|En des-|pit de tes|coups, mon a- mour,|mon a- mour|i- do- la- * tre|_ Ar- ri-|
 cf f2- f/g/f/(e/ | d2) d/e/f c>B | B2 z2 ff | f2 f2 g2 | ee f4 | d4 cc |[M:4/4] =B4 c2 GA | %22
w: ve, ar- ri- * * * ve à|_ son _ _ _ des-|sein. Serre et|ges- ne ces|doigts, de- fens|toy et te|van- ge, Je ne|
 B6 AG | F4 E2 EA |[M:3/4] G2 G2 c2 |[M:4/4] B3 B cdeB |[M:3/4] B2 f2 g2 | e2 c2 fc | d2 B2 f2 | %29
w: perds rien au|chan- ge, Et ne|sçay quel des|deux cha- touil- le plu- mes|sens, Ou mon|cri- me, ou mon|cri- me, mon|
 g2 cd d>e | e2 z2 ff | f2 f2 g2 | ee f4 | d4 cc |[M:4/4] =B4 c2 GA | B6 AG | F4 E2 EA | %37
w: crime ou tes chas- ti-|ments. Serre et|ges- ne ces|doigts, de- fens|toy et te|van- ge, Je ne|perds rien au|chan- ge, Et ne|
[M:3/4] G2 G2 c2 |[M:4/4] B3 B cdeB |[M:3/4] B2 f2 g2 | e2 c2 fc | d2 B2 f2 | g2 cd d>e | e6 |] %44
w: sçay quel des|deux cha- touil- le plu- mes|sens, Ou mon|cri- me, ou mon|cri- me, mon|crime ou tes chas- ti-|ments.|
V:2
 E6 | G4 A2 | E4 F2 | c2 B4 | A4 E2 | B4 =A2- | A4 B2- | B2 B,2 F2 | B,6 | E6 | G4 A2 | E4 F2 | %12
 c2 B4 | A4 E2 | B4 =A2- | A4 B2- | B2 B,2 F2 | B,2 B4 | B4 G2 | A2 F4 | G2 E4 |[M:4/4] D4 C4 | %22
 G2 =A2 B4 | B,4 C2 c2 |[M:3/4] B4 A2 |[M:4/4] G4 F2 E2 |[M:3/4] D2 B4 | c4 =A2 | B4 B,2 | %29
 G,2 A,2 B,2 | E2 B4 | B4 G2 | A2 F4 | G2 E4 |[M:4/4] D4 C4 | G2 =A2 B4 | B,4 C2 c2 | %37
[M:3/4] B4 A2 |[M:4/4] G4 F2 E2 |[M:3/4] D2 B4 | c4 =A2 | B4 B,2 | G,2 A,2 B,2 | E6 |] %44
V:3
 [EGB]6 | [EGc]2 [EGB]2 [CEA]2 | [B,EG]2 [B,DG]2 [A,CF]2 | [G,CE]2 [DG]2 [DF]2 | [CFA]4 [EGB]2 | %5
 [DFB]4 [CF]2 | [CF=A]4 [FBd]2 | [DFB]2 [DG]2 [=A,CF]2 | [B,DF]2 BB B2- | BF G2 [EGB]2 | %10
 [EGc]2 [EGB]2 [CEA]2 | [B,EG]2 [B,DG]2 [A,CF]2 | [G,CE]2 [DG]2 [DF]2 | [CFA]4 [EGB]2 | %14
 [DFB]4 [CF]2 | [CF=A]4 [FBd]2 | [DFB]2 [DG]2 [=A,CF]2 | B2 [Bd]2 [Bd]2 | [Bd]2 [Bd]2 [Bd]2 | %19
 [EAc]2 [DF=A]4 | [GB]4 [CEG]2 |[M:4/4] [=B,DG]4 [CEG]4 | E4 F2 G2 | F4 G2 A2 | %24
[M:3/4] [DGB]4 [EA]2 |[M:4/4] [B,EG]4 [CFA]2 [EGB]2 |[M:3/4] [B,DF]2 d2 e2 | c2 =A2 [Ad][FA] | %28
 [FB]2 [DG]2 [FBd]2 | [GBe]2 [CEA]2 [DFB]2 | B2 [Bd]2 [Bd]2 | [Bd]2 [Bd]2 [Bd]2 | [EAc]2 [DF=A]4 | %33
 [GB]4 [CEG]2 |[M:4/4] [=B,DG]4 [CEG]4 | E4 F2 G2 | F4 G2 A2 |[M:3/4] [DGB]4 [EA]2 | %38
[M:4/4] [B,EG]4 [CFA]2 [EGB]2 |[M:3/4] [B,DF]2 d2 e2 | c2 =A2 [Ad][FA] | [FB]2 [DG]2 [FBd]2 | %42
 [GBe]2 [CEA]2 [DFB]2 | B6 |] %44
V:4
 E,6 | G,4 A,2 | E,4 F,2 | C2 B,4 | A,4 E,2 | B,4 =A,2- | A,4 B,2- | B,2 B,,2 F,2 | B,,6 | E,6 | %10
 G,4 A,2 | E,4 F,2 | C2 B,4 | A,4 E,2 | B,4 =A,2- | A,4 B,2- | B,2 B,,2 F,2 | B,,2 B,4 | B,4 G,2 | %19
 A,2 F,4 | G,2 E,4 |[M:4/4] D,4 C,4 | G,2 =A,2 B,4 | B,,4 C,2 C2 |[M:3/4] B,4 A,2 | %25
[M:4/4] G,4 F,2 E,2 |[M:3/4] D,2 B,4 | C4 =A,2 | B,4 B,,2 | G,,2 A,,2 B,,2 | E,2 B,4 | B,4 G,2 | %32
 A,2 F,4 | G,2 E,4 |[M:4/4] D,4 C,4 | G,2 =A,2 B,4 | B,,4 C,2 C2 |[M:3/4] B,4 A,2 | %38
[M:4/4] G,4 F,2 E,2 |[M:3/4] D,2 B,4 | C4 =A,2 | B,4 B,,2 | G,,2 A,,2 B,,2 | E,6 |] %44
V:5
 x6 | x6 | x6 | x6 | x6 | x6 | x6 | x6 | x6 | x6 | x6 | x6 | x6 | x6 | x6 | x6 | x6 | FF F2 F2 | %18
 F2 FF G2 | x6 | x6 |[M:4/4] x8 | C4 D2 E2 | E2 D2 E4 |[M:3/4] x6 |[M:4/4] x8 |[M:3/4] x6 | x6 | %28
 x6 | x6 | GG F2 F2 | F2 FF G2 | x6 | x6 |[M:4/4] x8 | C4 D2 E2 | E2 D2 E4 |[M:3/4] x6 | %38
[M:4/4] x8 |[M:3/4] x6 | x6 | x6 | x6 | AF G4 |] %44

